src/amo/components/CategoryIcon/img/photos-music-video.svg

<svg xmlns="http://www.w3.org/2000/svg" width="64" height="64" viewBox="0 0 64 64">
  <g class="two" fill="#0F1126">
    <path d="M2.46153846,0 L61.5384615,0 C62.8979317,0 64,1.10206831 64,2.46153846 L64,61.5384615 C64,62.8979317 62.8979317,64 61.5384615,64 L2.46153846,64 C1.10206831,64 0,62.8979317 0,61.5384615 L0,2.46153846 C0,1.10206831 1.10206831,0 2.46153846,0 Z M4.92307692,59.0769231 L59.0769231,59.0769231 L59.0769231,4.92307692 L4.92307692,4.92307692 L4.92307692,59.0769231 Z"/>
  </g>
  <g class="one" fill="#0F1162">
    <path d="M24.1230769,28.3076923 C20.7244015,28.3076923 17.9692308,25.5525215 17.9692308,22.1538462 C17.9692308,18.7551708 20.7244015,16 24.1230769,16 C27.5217523,16 30.2769231,18.7551708 30.2769231,22.1538462 C30.2769231,25.5525215 27.5217523,28.3076923 24.1230769,28.3076923 Z M24.1230769,25.8461538 C26.1622822,25.8461538 27.8153846,24.1930514 27.8153846,22.1538462 C27.8153846,20.1146409 26.1622822,18.4615385 24.1230769,18.4615385 C22.0838717,18.4615385 20.4307692,20.1146409 20.4307692,22.1538462 C20.4307692,24.1930514 22.0838717,25.8461538 24.1230769,25.8461538 Z M25.3234522,45.7610693 L16.3969024,38.6198295 L10.2800944,45.6104672 C9.83248571,46.12202 9.05493172,46.1738569 8.54337894,45.7262482 C8.03182617,45.2786396 7.97998923,44.5010856 8.42759791,43.9895328 L15.3199056,36.1126097 C15.7536226,35.6169331 16.5006984,35.5505589 17.0150093,35.9620076 L25.919123,43.0852986 L39.9160353,26.2890038 C40.3902119,25.719992 41.2559143,25.6956633 41.7612988,26.2371468 L55.5459142,41.0063775 C56.0097098,41.5033014 55.9828541,42.2821185 55.4859302,42.7459142 C54.9890062,43.2097098 54.2101892,43.1828541 53.7463935,42.6859302 L40.9138041,28.9367273 L27.0378108,45.5879193 C26.6087956,46.1027376 25.8467462,46.1797045 25.3234522,45.7610693 Z"/>
  </g>
</svg>

<svg xmlns="http://www.w3.org/2000/svg" width="64" height="64"><path d="M2.462 0h59.076A2.462 2.462 0 0 1 64 2.462v59.076A2.462 2.462 0 0 1 61.538 64H2.462A2.462 2.462 0 0 1 0 61.538V2.462A2.462 2.462 0 0 1 2.462 0Zm2.461 59.077h54.154V4.923H4.923v54.154Z" class="two" fill="#0F1126"/><path d="M24.123 28.308a6.154 6.154 0 1 1 0-12.308 6.154 6.154 0 0 1 0 12.308Zm0-2.462a3.692 3.692 0 1 0 0-7.384 3.692 3.692 0 0 0 0 7.384Zm1.2 19.915-8.926-7.141-6.117 6.99a1.23 1.23 0 1 1-1.852-1.62l6.892-7.877a1.23 1.23 0 0 1 1.695-.151l8.904 7.123L39.916 26.29a1.23 1.23 0 0 1 1.845-.052l13.785 14.77a1.23 1.23 0 0 1-1.8 1.679l-12.832-13.75-13.876 16.652a1.23 1.23 0 0 1-1.715.173Z" class="one" fill="#0F1162"/></svg>
